svg/flickr.svg

<svg xmlns="http://www.w3.org/2000/svg" viewBox="0 0 64 29" enable-background="new 0 0 64 29"><style type="text/css">.st0{fill:#343434;}</style><path id="flickr-logo-of-two-dots" class="st0" d="M64 14.5c0 8-6.5 14.5-14.5 14.5s-14.5-6.5-14.5-14.5 6.5-14.5 14.5-14.5 14.5 6.5 14.5 14.5zm-49.5-14.5c-8 0-14.5 6.5-14.5 14.5s6.5 14.5 14.5 14.5 14.5-6.5 14.5-14.5-6.5-14.5-14.5-14.5z"/></svg>

<svg xmlns="http://www.w3.org/2000/svg" viewBox="0 0 64 29"><path d="M64 14.5c0 8-6.5 14.5-14.5 14.5S35 22.5 35 14.5 41.5 0 49.5 0 64 6.5 64 14.5zM14.5 0C6.5 0 0 6.5 0 14.5S6.5 29 14.5 29 29 22.5 29 14.5 22.5 0 14.5 0z" fill="#343434"/></svg>
